X: 34684
T: Road To Dunmore, The
R: waltz
M: 3/4
K: Cmajor
L: 1/4
A/B/|"Am"c3|"Em"B3|"F"A2 G/F/|"Em"G3|"Dm"D2 E/F/|"G"G E C|"F"(D3|"Dm"D2)"G"G,/G,/|
|:"C"C2 C|"G"DEF|"C"G3|"F"A3|"C"GED|CDE|"G"(D3|D2) G,/G,/|
"C"C2 C/C/|"G"DEF|"C"G3|"F"A2 A|"C"GEC|"G"DCB,|"C"(C3|C2) A/B/|
"Am"c2 c/c/|cBG|"F"(A3|"Em"G2) G/G/|"C"GED|"Am"CDE|"G"(D3|D2) G,/G,/|
"C"C2 C|"G"DEF|"C"G3|"F"A2 A|"C"GEC|"G"DCB,|1 "C"C3-|C2 G,/G,/:|2 "C"C3-|C||

